X:327
T: GIB MIR DIE BLUMEN GIB MIR DEN KRANZ
N: B0383
O: Europa, Mitteleuropa, Deutschland; Frankreich, Elsass
R: Liebes - Lied, Liebes - Lust
M: 3/8
L: 1/16
K: G
 | G2A2B2 | d2c2A2 | B2G2B2 | A4z2 |
A2B2c2 | e2d2B2 | d2c2A2 | G4z2 |
A2A2A2 | A2f2d2 | ^c2B2c2 | d6 |
B2B2B2 | d3cB2 | A2G2A2 | G4z2

@@@ Tune index: 2130
